T: Dermot McLaughlin's
M: 4/4
L: 1/8
K: Dmaj
A>FA>d f2 f2 | e>^de>g B2 e>=d  | c2 E>F G>FG>A | (3BcB A^G A>=GF>G |A>F (3FAd f2 f2 | e>^de>g B2 e>=d | c2 e>f g>eB>c | d2 f2 d2 :|f>dA>d f2 f2 | e>^de>g b2 ^a>b | c'>bg>e c2 (3ABc | (3dfe (3dcB A>a^g>a |f>d (3FAd f2 f2 | e>^de>g b2 ^a>b | c'>bg>e b>a (3gfe | d2 f2 d2 :|
</html>
